X: 11
T:Jack Holmes Reel,aka. JMP.011
T:Lady Nellie Wemyss,aka. JMP.011
M:6/8
L:1/8
Q:110
C:"14...Quick March",Lady Nellie Wemyss,
S:John Miller MS. Perth, 1799.(for the fife)
R:March
O:Scotland
A:Perth
N:1 -  Bar line appears to be missing, but
N:photocopy very dark..Untitled in MS, except for "quick march"..
H:1799
Z:vmp.C. Graebe
K:D major
"No time signature given - key given as G"cde e2a |\
cAc e2d | cde efg | BGB d2B |!
cde efg | agf edc | dfd cec | BGB d2 B "1":|!
|: aec ecA | aec efg | aec ecA | BGB d2 B |!
 aec ecA | aec efg | fdf ece | BGB d2 B :|]
